X:5584
T:Roaring Mary
O:england
M:C|
R:Reel
S:Bruce's 250
K:D
D~F3 A~F3|defa g2fe|dcdB AFAB|defd e2Bc|\
d~F3 A~F3|defa g2fe|dcdB ABdf|afeg fdd2::\
faag f2fe|dcdA BAFA|e~g3 b~g3|a~f3 gee2|\
D~F3 A~F3|defa g2fe|dcdB ABdf|afeg fdd2:|


